build/system/ChevronRightSolid.svg

<svg xmlns="http://www.w3.org/2000/svg" fill="none" viewBox="0 0 24 24" focusable="false"><path d="M0 0H24V24H0z"/><path fill="#74767B" fill-rule="evenodd" d="M21 12C21 7.02944 16.9706 3 12 3C7.02944 3 3 7.02944 3 12C3 16.9706 7.02944 21 12 21C16.9706 21 21 16.9706 21 12ZM9.81369 16.3941C9.94369 16.5341 10.1137 16.6041 10.2937 16.6041C10.4537 16.6041 10.6037 16.5541 10.7337 16.4341L14.7737 12.5104C15.0837 12.2304 15.0837 11.7504 14.7737 11.4704L10.7137 7.56408C10.4437 7.32408 10.0337 7.34408 9.79369 7.60408C9.55369 7.87408 9.56369 8.28408 9.83369 8.52408L13.4073 11.9976L9.85369 15.4741C9.59369 15.7141 9.57369 16.1241 9.81369 16.3941Z"/></svg>

<svg xmlns="http://www.w3.org/2000/svg" fill="none" viewBox="0 0 24 24" focusable="false"><path fill="#74767B" fill-rule="evenodd" d="M21 12c0-4.98-4.03-9-9-9-4.98 0-9 4.02-9 9 0 4.97 4.02 9 9 9a9 9 0 0 0 9-9M9.81 16.39c.13.14.3.21.48.21.16 0 .31-.05.44-.17l4.04-3.92c.31-.28.31-.76 0-1.04l-4.06-3.91a.66.66 0 0 0-.92.04.65.65 0 0 0 .04.92l3.57 3.47-3.55 3.48c-.26.24-.28.65-.04.92"/></svg>
